symbols/web/add_reaction/materialsymbolsoutlined/add_reaction_fill1_24px.svg

<svg xmlns="http://www.w3.org/2000/svg" height="24" width="24"><path d="M20 7V5h-2V3h2V1h2v2h2v2h-2v2Zm-4.5 4q.65 0 1.075-.425Q17 10.15 17 9.5q0-.65-.425-1.075Q16.15 8 15.5 8q-.65 0-1.075.425Q14 8.85 14 9.5q0 .65.425 1.075Q14.85 11 15.5 11Zm-7 0q.65 0 1.075-.425Q10 10.15 10 9.5q0-.65-.425-1.075Q9.15 8 8.5 8q-.65 0-1.075.425Q7 8.85 7 9.5q0 .65.425 1.075Q7.85 11 8.5 11Zm3.5 6.5q1.775 0 3.137-.975Q16.5 15.55 17.1 14H6.9q.6 1.55 1.963 2.525 1.362.975 3.137.975Zm0 4.5q-2.075 0-3.9-.788-1.825-.787-3.175-2.137-1.35-1.35-2.137-3.175Q2 14.075 2 12t.788-3.9q.787-1.825 2.137-3.175 1.35-1.35 3.175-2.138Q9.925 2 12 2q1.075 0 2.075.212 1 .213 1.925.613V7h2v2h3.55q.225.725.338 1.462Q22 11.2 22 12q0 2.075-.788 3.9-.787 1.825-2.137 3.175-1.35 1.35-3.175 2.137Q14.075 22 12 22Z"/></svg>

<svg xmlns="http://www.w3.org/2000/svg" height="24" width="24"><path d="M20 7V5H18V3H20V1H22V3H24V5H22V7ZM15.5 11Q16.15 11 16.575 10.575Q17 10.15 17 9.5Q17 8.85 16.575 8.425Q16.15 8 15.5 8Q14.85 8 14.425 8.425Q14 8.85 14 9.5Q14 10.15 14.425 10.575Q14.85 11 15.5 11ZM8.5 11Q9.15 11 9.575 10.575Q10 10.15 10 9.5Q10 8.85 9.575 8.425Q9.15 8 8.5 8Q7.85 8 7.425 8.425Q7 8.85 7 9.5Q7 10.15 7.425 10.575Q7.85 11 8.5 11ZM12 17.5Q13.775 17.5 15.137 16.525Q16.5 15.55 17.1 14H6.9Q7.5 15.55 8.863 16.525Q10.225 17.5 12 17.5ZM12 22Q9.925 22 8.1 21.212Q6.275 20.425 4.925 19.075Q3.575 17.725 2.788 15.9Q2 14.075 2 12Q2 9.925 2.788 8.1Q3.575 6.275 4.925 4.925Q6.275 3.575 8.1 2.787Q9.925 2 12 2Q13.075 2 14.075 2.212Q15.075 2.425 16 2.825V7H18V9H21.55Q21.775 9.725 21.888 10.462Q22 11.2 22 12Q22 14.075 21.212 15.9Q20.425 17.725 19.075 19.075Q17.725 20.425 15.9 21.212Q14.075 22 12 22Z"/></svg>
